X:127
M:6/8
L:1/8
K:A
|: agf edc | fed cBA | Bcd cBA | GAB BGE | agf edc | fed cBA | d2f edc | BAG A2 :|

